img/vk.svg

<svg width="25" height="25" viewBox="0 0 25 25" fill="none" xmlns="http://www.w3.org/2000/svg">
<g clip-path="url(#clip0_10112_31)">
<path fill-rule="evenodd" clip-rule="evenodd" d="M21.986 15.5604C21.986 15.5604 23.9264 17.4768 24.4064 18.3636C24.4158 18.3764 24.4231 18.3905 24.428 18.4056C24.6236 18.7332 24.6716 18.99 24.5756 19.1796C24.4136 19.4928 23.8652 19.65 23.6792 19.6632H20.2496C20.0108 19.6632 19.514 19.6008 18.9092 19.1832C18.4472 18.8604 17.9876 18.3288 17.5424 17.8092C16.8776 17.0376 16.3028 16.368 15.7208 16.368C15.6473 16.3678 15.5743 16.38 15.5048 16.404C15.0644 16.5432 14.5052 17.1708 14.5052 18.8424C14.5052 19.3656 14.0924 19.6632 13.8032 19.6632H12.2324C11.6972 19.6632 8.91084 19.476 6.44004 16.8708C3.41244 13.6812 0.693243 7.28278 0.666843 7.22638C0.497643 6.81238 0.852843 6.58678 1.23684 6.58678H4.70004C5.16444 6.58678 5.31564 6.86758 5.42124 7.11958C5.54364 7.40878 5.99724 8.56558 6.74124 9.86518C7.94604 11.9796 8.68644 12.84 9.27804 12.84C9.38919 12.8403 9.49846 12.8113 9.59484 12.756C10.3676 12.3312 10.2236 9.57118 10.1876 9.00238C10.1876 8.89198 10.1864 7.76998 9.79044 7.22758C9.50724 6.83878 9.02484 6.68758 8.73324 6.63238C8.81124 6.51958 8.97684 6.34678 9.18924 6.24478C9.71844 5.98078 10.6748 5.94238 11.624 5.94238H12.1508C13.1804 5.95678 13.4468 6.02278 13.8212 6.11758C14.5748 6.29758 14.5892 6.78598 14.5232 8.44918C14.504 8.92438 14.4836 9.45958 14.4836 10.0896C14.4836 10.224 14.4776 10.374 14.4776 10.5264C14.4548 11.3796 14.4248 12.3408 15.0272 12.7356C15.1054 12.7843 15.1956 12.81 15.2876 12.81C15.4964 12.81 16.1216 12.81 17.8172 9.89998C18.5612 8.61478 19.1372 7.09918 19.1768 6.98518C19.2104 6.92158 19.3112 6.74278 19.4336 6.67078C19.5207 6.62446 19.6182 6.60132 19.7168 6.60358H23.7908C24.2348 6.60358 24.536 6.67078 24.5948 6.83878C24.6932 7.11118 24.5756 7.94278 22.7156 10.458C22.4024 10.8768 22.1276 11.2392 21.8864 11.556C20.2004 13.7688 20.2004 13.8804 21.986 15.5604Z" fill="white"/>
</g>
<defs>
<clipPath id="clip0_10112_31">
<rect x="0.623535" y="0.802734" width="24" height="24" fill="white"/>
</clipPath>
</defs>
</svg>

<svg width="25" height="25" fill="none" xmlns="http://www.w3.org/2000/svg">
  <g clip-path="url(#a)">
    <path fill-rule="evenodd" clip-rule="evenodd" d="M21.986 15.56s1.94 1.917 2.42 2.804a.12.12 0 0 1 .022.042c.196.327.244.584.148.774-.162.313-.71.47-.897.483h-3.43c-.238 0-.735-.062-1.34-.48-.462-.323-.921-.854-1.367-1.374-.664-.771-1.24-1.441-1.821-1.441a.656.656 0 0 0-.216.036c-.44.14-1 .767-1 2.438 0 .524-.413.821-.702.821h-1.57c-.536 0-3.322-.187-5.793-2.792C3.412 13.68.693 7.283.667 7.226c-.17-.414.186-.64.57-.64H4.7c.464 0 .616.282.721.534.123.289.576 1.446 1.32 2.745 1.205 2.115 1.945 2.975 2.537 2.975.111 0 .22-.029.317-.084.773-.425.629-3.185.593-3.754 0-.11-.002-1.232-.398-1.774-.283-.39-.765-.54-1.057-.596.078-.112.244-.285.456-.387.53-.264 1.486-.303 2.435-.303h.527c1.03.015 1.296.08 1.67.176.754.18.768.668.702 2.331-.019.475-.04 1.01-.04 1.64 0 .135-.005.285-.005.437-.023.854-.053 1.815.55 2.21a.492.492 0 0 0 .26.074c.208 0 .834 0 2.53-2.91.743-1.285 1.32-2.8 1.359-2.915.033-.063.134-.242.257-.314a.575.575 0 0 1 .283-.067h4.074c.444 0 .745.067.804.235.098.272-.02 1.104-1.88 3.619-.313.419-.587.781-.829 1.098-1.686 2.213-1.686 2.324.1 4.004Z" fill="#fff"/>
  </g>
  <defs>
    <clipPath id="a">
      <path fill="#fff" d="M.624.803h24v24h-24z"/>
    </clipPath>
  </defs>
</svg>
